src/components/00-materials/images-raw/Woman Elderly.svg

<svg width="96" height="96" viewBox="0 0 96 96" fill="none" xmlns="http://www.w3.org/2000/svg">
<path d="M41.34 52.8999L32.34 55.4299C25 57.9999 21 61.8099 21 68.1599V74.8499C21.0024 75.7998 21.3428 76.7179 21.9602 77.4398C22.5777 78.1617 23.4319 78.6403 24.37 78.7899L35.44 80.7899C43.7416 82.34 52.2584 82.34 60.56 80.7899L71.63 78.7899C72.5681 78.6403 73.4223 78.1617 74.0398 77.4398C74.6572 76.7179 74.9976 75.7998 75 74.8499V68.1599C75 61.8099 71 57.9999 63.69 55.4299L54.69 52.8999M37.96 53.8499L40 62.1299L48 54.9999L56 62.1299L58.04 53.8499M48 64.9999V65.9999M48 59.9999V60.9999M48 69.9999V70.9999M48 74.9999V75.9999M48 79.9999V81.9999M30 73.9999V79.8299M66 73.9999V79.8299" stroke="#00008F" stroke-width="2" stroke-linecap="round" stroke-linejoin="round"/>
<path d="M48 31C48 33.76 43.08 36 37 36V43.07C37 49.71 41 55 48 55C55 55 59 49.71 59 43.07V36C52.92 36 48 33.76 48 31Z" stroke="#00008F" stroke-width="2" stroke-linecap="round" stroke-linejoin="round"/>
<path d="M58.36 47.44C63 44.91 66 40.73 66 36C66 28.27 57.94 22 48 22C38.06 22 30 28.27 30 36C30 40.73 33 44.91 37.64 47.44M54.7 23C55.0164 21.9541 55.0837 20.8488 54.8963 19.7723C54.709 18.6958 54.2722 17.6782 53.621 16.8008C52.9698 15.9234 52.1223 15.2106 51.1462 14.7195C50.1701 14.2284 49.0926 13.9727 48 13.9727C46.9074 13.9727 45.8299 14.2284 44.8538 14.7195C43.8777 15.2106 43.0302 15.9234 42.379 16.8008C41.7278 17.6782 41.291 18.6958 41.1037 19.7723C40.9163 20.8488 40.9836 21.9541 41.3 23" stroke="#00008F" stroke-width="2" stroke-linecap="round" stroke-linejoin="round"/>
</svg>

<svg width="96" height="96" viewBox="0 0 96 96" fill="none" xmlns="http://www.w3.org/2000/svg"><path d="M41.34 52.9l-9 2.53C25 58 21 61.81 21 68.16v6.69a4 4 0 003.37 3.94l11.07 2a68.428 68.428 0 0025.12 0l11.07-2A4 4 0 0075 74.85v-6.69c0-6.35-4-10.16-11.31-12.73l-9-2.53m-16.73.95L40 62.13 48 55l8 7.13 2.04-8.28M48 65v1m0-6v1m0 9v1m0 4v1m0 4v2m-18-8v5.83M66 74v5.83" stroke="#00008F" stroke-width="2" stroke-linecap="round" stroke-linejoin="round"/><path d="M48 31c0 2.76-4.92 5-11 5v7.07C37 49.71 41 55 48 55s11-5.29 11-11.93V36c-6.08 0-11-2.24-11-5z" stroke="#00008F" stroke-width="2" stroke-linecap="round" stroke-linejoin="round"/><path d="M58.36 47.44C63 44.91 66 40.73 66 36c0-7.73-8.06-14-18-14s-18 6.27-18 14c0 4.73 3 8.91 7.64 11.44M54.7 23a7 7 0 10-13.4 0" stroke="#00008F" stroke-width="2" stroke-linecap="round" stroke-linejoin="round"/></svg>
